svgs/light/kit-medical.svg

<svg xmlns="http://www.w3.org/2000/svg" viewBox="0 0 576 512"><!-- Font Awesome Pro 6.0.0-alpha2 by @fontawesome - https://fontawesome.com License - https://fontawesome.com/license (Commercial License) --><path d="M512 32H64C28.654 32 0 60.654 0 96V416C0 451.346 28.654 480 64 480H512C547.348 480 576 451.346 576 416V96C576 60.654 547.348 32 512 32ZM96 448H64C46.355 448 32 433.645 32 416V96C32 78.355 46.355 64 64 64H96V448ZM448 448H128V64H448V448ZM544 416C544 433.645 529.645 448 512 448H480V64H512C529.645 64 544 78.355 544 96V416ZM208 288H256V336C256 344.836 263.164 352 272 352H304C312.836 352 320 344.836 320 336V288H368C376.836 288 384 280.836 384 272V240C384 231.162 376.836 224 368 224H320V176C320 167.162 312.836 160 304 160H272C263.164 160 256 167.162 256 176V224H208C199.164 224 192 231.162 192 240V272C192 280.836 199.164 288 208 288Z"/></svg>

<svg xmlns="http://www.w3.org/2000/svg" viewBox="0 0 576 512"><!--! Font Awesome Pro 6.3.0 by @fontawesome - https://fontawesome.com License - https://fontawesome.com/license (Commercial License) Copyright 2023 Fonticons, Inc. --><path d="M512 32H64C28.65 32 0 60.65 0 96v320c0 35.35 28.65 64 64 64h448c35.35 0 64-28.65 64-64V96C576 60.65 547.3 32 512 32zM96 448H64c-17.64 0-32-14.36-32-32V96c0-17.64 14.36-32 32-32h32V448zM448 448H128V64h320V448zM544 416c0 17.64-14.36 32-32 32h-32V64h32c17.64 0 32 14.36 32 32V416zM208 288H256v48C256 344.8 263.2 352 272 352h32c8.836 0 16-7.164 16-16V288h48C376.8 288 384 280.8 384 272v-32C384 231.2 376.8 224 368 224H320V176C320 167.2 312.8 160 304 160h-32C263.2 160 256 167.2 256 176V224H208C199.2 224 192 231.2 192 240v32C192 280.8 199.2 288 208 288z"/></svg>
